X:979
T:Laird o' Cockpen, The
C:Joe Buchanan's Scottish Tome - Page 566.3
I:566 3
Z:Carl Allison
R:Waltz
L:1/4
M:3/4
K:G
B, | "Em"E F E | "Em"G2 G | "D"F D D | "D"D2 F | "C"D>F E | e2 e | "G"d B B | "G"B2 c | 
"G"d G B | "Bm"d c B | "Am"A>B G | "B7"F2 G/A/ | "Em"B>c B | "B7"B A B | "Em"G E E | "Em"E2 B, | 
"Em"E>F E | "Em"G2 G | "D"F D D | "D"D2 F | "C"E>F E | "C"e2 e | "G"d B B | "G"B2 "Cm"c | 
"G"d G B | "Bm"d c B | "Am"A>B G | "B"F2 G/A/ | "Em"B>c B | "B7"B A B | "Em"G E E | "Em"E2 |] 

